symbols/web/living/materialsymbolsoutlined/living_24px.svg

<svg xmlns="http://www.w3.org/2000/svg" height="24" width="24"><path d="M4 22q-.825 0-1.412-.587Q2 20.825 2 20V4q0-.825.588-1.413Q3.175 2 4 2h16q.825 0 1.413.587Q22 3.175 22 4v16q0 .825-.587 1.413Q20.825 22 20 22Zm0-2h16V4H4v16Zm3-2h10q.825 0 1.413-.587Q19 16.825 19 16v-3.5q0-.675-.337-1.238-.338-.562-.913-.912V9q0-1.25-.875-2.125T14.75 6h-5.5Q8 6 7.125 6.875T6.25 9v1.35q-.575.35-.912.912Q5 11.825 5 12.5V16q0 .825.588 1.413Q6.175 18 7 18Zm0-1.5q-.225 0-.362-.137Q6.5 16.225 6.5 16v-3.5q0-.425.287-.713.288-.287.713-.287t.713.287q.287.288.287.713v2h7v-2q0-.425.287-.713.288-.287.713-.287t.712.287q.288.288.288.713V16q0 .225-.137.363-.138.137-.363.137Zm3-3.5v-.5q0-.975-.65-1.675-.65-.7-1.6-.775V9q0-.65.425-1.075Q8.6 7.5 9.25 7.5h5.5q.65 0 1.075.425.425.425.425 1.075v1.05q-.95.075-1.6.775-.65.7-.65 1.675v.5Zm-6 7V4v16Z"/></svg>

<svg xmlns="http://www.w3.org/2000/svg" height="24" width="24"><path d="M4 22Q3.175 22 2.588 21.413Q2 20.825 2 20V4Q2 3.175 2.588 2.587Q3.175 2 4 2H20Q20.825 2 21.413 2.587Q22 3.175 22 4V20Q22 20.825 21.413 21.413Q20.825 22 20 22ZM4 20H20Q20 20 20 20Q20 20 20 20V4Q20 4 20 4Q20 4 20 4H4Q4 4 4 4Q4 4 4 4V20Q4 20 4 20Q4 20 4 20ZM7 18H17Q17.825 18 18.413 17.413Q19 16.825 19 16V12.5Q19 11.825 18.663 11.262Q18.325 10.7 17.75 10.35V9Q17.75 7.75 16.875 6.875Q16 6 14.75 6H9.25Q8 6 7.125 6.875Q6.25 7.75 6.25 9V10.35Q5.675 10.7 5.338 11.262Q5 11.825 5 12.5V16Q5 16.825 5.588 17.413Q6.175 18 7 18ZM7 16.5Q6.775 16.5 6.638 16.363Q6.5 16.225 6.5 16V12.5Q6.5 12.075 6.787 11.787Q7.075 11.5 7.5 11.5Q7.925 11.5 8.213 11.787Q8.5 12.075 8.5 12.5V14.5H15.5V12.5Q15.5 12.075 15.787 11.787Q16.075 11.5 16.5 11.5Q16.925 11.5 17.212 11.787Q17.5 12.075 17.5 12.5V16Q17.5 16.225 17.363 16.363Q17.225 16.5 17 16.5ZM10 13V12.5Q10 11.525 9.35 10.825Q8.7 10.125 7.75 10.05V9Q7.75 8.35 8.175 7.925Q8.6 7.5 9.25 7.5H14.75Q15.4 7.5 15.825 7.925Q16.25 8.35 16.25 9V10.05Q15.3 10.125 14.65 10.825Q14 11.525 14 12.5V13ZM4 20Q4 20 4 20Q4 20 4 20V4Q4 4 4 4Q4 4 4 4Q4 4 4 4Q4 4 4 4V20Q4 20 4 20Q4 20 4 20Z"/></svg>
